assets/home/features/oss.svg

<svg xmlns="http://www.w3.org/2000/svg" viewBox="0 0 1500 1000" fill="none"><path d="M1489.37 0H10.607C4.749 0 0 3.166 0 7.071v985.845c0 3.906 4.749 7.071 10.607 7.071H1489.37c5.86 0 10.61-3.165 10.61-7.071V7.071c0-3.905-4.75-7.071-10.61-7.071z" fill="#151d35"/><path d="M749.507 250c-124.52 0-231.466 88.824-254.16 211.145s45.277 243.582 161.528 288.168c1.268.487 2.619.719 3.977.683s2.695-.337 3.935-.889a10.33 10.33 0 0 0 3.296-2.326c.934-.984 1.666-2.143 2.153-3.41l58.033-151.113c.981-2.557.906-5.399-.209-7.901a10.34 10.34 0 0 0-5.738-5.442c-34.179-13.111-54.05-48.567-47.377-84.527s37.944-61.933 74.558-61.933 67.878 25.97 74.552 61.933-13.198 71.421-47.378 84.527c-2.559.983-4.622 2.94-5.738 5.442s-1.19 5.344-.209 7.901l58.034 151.113c.486 1.267 1.218 2.426 2.153 3.41s2.054 1.775 3.295 2.326a10.34 10.34 0 0 0 3.936.889c1.357.036 2.708-.196 3.976-.683 116.257-44.585 184.226-165.847 161.526-288.168C980.96 338.824 874.019 250 749.499 250h.008zm0 20.66c114.689 0 212.914 81.586 233.814 194.248 20.269 109.243-37.954 217.096-139.122 260.992l-50.796-132.247c37.482-19.238 58.804-60.857 50.98-103.031-8.466-45.626-48.438-78.823-94.877-78.823s-86.423 33.197-94.884 78.823c-7.826 42.173 13.497 83.789 50.98 103.031l-50.797 132.24c-101.161-43.896-159.386-151.742-139.122-260.985 20.9-112.662 119.132-194.248 233.821-194.248h.003z" fill="url(#A)"/><path d="M1009.29 272.145l-21.538 21.541 21.538 21.541 21.54-21.541-21.54-21.541z" fill="#f57389"/><path d="M447.284 378.426L430 395.711l17.284 17.284 17.285-17.285-17.285-17.284z" fill="#78e5f6"/><path d="M987.76 239L977 249.76l10.76 10.76 10.76-10.76L987.76 239zM1031 570l2.81 2.884L1050.5 590l19.5-20-19.5-20-19.5 20zm11.25 0l8.25-8.465 8.25 8.465-8.25 8.464-8.25-8.464z" fill="#f57389"/><path d="M564.234 736L550 750.234l14.234 14.235 14.235-14.235L564.234 736z" fill="#78e5f6"/><defs><linearGradient id="A" x1="568" y1="710" x2="963.713" y2="346.187" gradientUnits="userSpaceOnUse"><stop stop-color="#78e5f6"/><stop offset=".161" stop-color="#6be1e1"/><stop offset=".501" stop-color="#a77ddd"/><stop offset=".807" stop-color="#de85b5"/><stop offset="1" stop-color="#f57389"/></linearGradient></defs></svg>

<svg width="1500" height="1000" viewBox="0 0 1500 1000" fill="none" xmlns="http://www.w3.org/2000/svg">
<path d="M1489.37 0H10.6065C4.74867 0 0 3.16574 0 7.07093V992.916C0 996.822 4.74867 999.987 10.6065 999.987H1489.37C1495.23 999.987 1499.98 996.822 1499.98 992.916V7.07093C1499.98 3.16574 1495.23 0 1489.37 0Z" fill="#151D35"/>
<path d="M749.507 250C624.987 250 518.041 338.824 495.347 461.145C472.654 583.466 540.624 704.727 656.875 749.313C658.143 749.8 659.494 750.032 660.852 749.996C662.209 749.961 663.547 749.659 664.787 749.107C666.028 748.556 667.148 747.765 668.083 746.781C669.017 745.797 669.749 744.638 670.236 743.371L728.269 592.258C729.25 589.701 729.175 586.859 728.06 584.357C726.945 581.855 724.881 579.898 722.322 578.915C688.143 565.804 668.272 530.348 674.945 494.388C681.617 458.425 712.889 432.455 749.503 432.455C786.116 432.455 817.381 458.425 824.055 494.388C830.728 530.351 810.857 565.809 776.677 578.915C774.118 579.898 772.055 581.855 770.939 584.357C769.824 586.859 769.749 589.701 770.73 592.258L828.764 743.371C829.25 744.638 829.982 745.797 830.917 746.781C831.852 747.765 832.971 748.556 834.212 749.107C835.453 749.659 836.79 749.961 838.148 749.996C839.505 750.032 840.856 749.8 842.124 749.313C958.381 704.728 1026.35 583.466 1003.65 461.145C980.96 338.824 874.019 250 749.499 250H749.507ZM749.507 270.66C864.196 270.66 962.421 352.246 983.321 464.908C1003.59 574.151 945.367 682.004 844.199 725.9L793.403 593.653C830.885 574.415 852.207 532.796 844.383 490.622C835.917 444.996 795.945 411.799 749.506 411.799C703.067 411.799 663.083 444.996 654.622 490.622C646.796 532.795 668.119 574.411 705.602 593.653L654.805 725.893C553.644 681.997 495.419 574.151 515.683 464.908C536.583 352.246 634.815 270.66 749.504 270.66H749.507Z" fill="url(#paint0_linear_96_1269)"/>
<path d="M1009.29 272.145L987.752 293.686L1009.29 315.227L1030.83 293.686L1009.29 272.145Z" fill="#F57389"/>
<path d="M447.284 378.426L430 395.711L447.284 412.995L464.569 395.71L447.284 378.426Z" fill="#78E5F6"/>
<path d="M987.76 239L977 249.76L987.76 260.52L998.52 249.76L987.76 239Z" fill="#F57389"/>
<path d="M1031 570L1033.81 572.884L1050.5 590L1070 570L1050.5 550L1031 570ZM1042.25 570L1050.5 561.535L1058.75 570L1050.5 578.464L1042.25 570Z" fill="#F57389"/>
<path d="M564.234 736L550 750.234L564.234 764.469L578.469 750.234L564.234 736Z" fill="#78E5F6"/>
<defs>
<linearGradient id="paint0_linear_96_1269" x1="568" y1="710" x2="963.713" y2="346.187" gradientUnits="userSpaceOnUse">
<stop stop-color="#78E5F6"/>
<stop offset="0.161458" stop-color="#6BE1E1"/>
<stop offset="0.500924" stop-color="#A77DDD"/>
<stop offset="0.807292" stop-color="#DE85B5"/>
<stop offset="1" stop-color="#F57389"/>
</linearGradient>
</defs>
</svg>
